mobile/20/svg/star-fill-20.svg

<svg width="20" height="20" fill="none" xmlns="http://www.w3.org/2000/svg"><path d="M6.741 16a.982.982 0 0 1-.579-.189.98.98 0 0 1-.375-1.04l.798-3.132-2.487-2.066a.979.979 0 0 1-.307-1.062.98.98 0 0 1 .873-.679l3.226-.209L9.086 4.62A.978.978 0 0 1 10 4a.98.98 0 0 1 .915.621l1.196 3.003 3.226.209a.979.979 0 0 1 .873.679.978.978 0 0 1-.309 1.061l-2.486 2.064.798 3.133a.981.981 0 0 1-.375 1.04.98.98 0 0 1-1.105.036L10 14.119l-2.732 1.727a.984.984 0 0 1-.527.154z" fill="#000"/></svg>

<svg width="20" height="20" viewBox="0 0 20 20" fill="none" xmlns="http://www.w3.org/2000/svg">
<path d="M6.741 16C6.538 16 6.335 15.937 6.162 15.811C5.834 15.572 5.686 15.164 5.787 14.771L6.585 11.639L4.098 9.573C3.786 9.314 3.665 8.897 3.791 8.511C3.916 8.125 4.259 7.859 4.664 7.832L7.89 7.623L9.086 4.62C9.235 4.244 9.594 4 10 4C10.406 4 10.765 4.244 10.915 4.621L12.111 7.624L15.337 7.833C15.743 7.86 16.086 8.126 16.21 8.512C16.335 8.898 16.214 9.315 15.901 9.573L13.415 11.637L14.213 14.77C14.313 15.163 14.166 15.571 13.838 15.81C13.51 16.048 13.077 16.063 12.733 15.846L10 14.119L7.268 15.846C7.105 15.949 6.923 16 6.741 16Z" fill="black"/>
</svg>
